!!!OTL: Zhouzongli jingshen yongshicuen
!!!ARE: Asia, China,ÿQinghai Xuenhua Tongren
!! I, 223
!!!SCT: C1855
!!!YEM: Copyright 1995, estate of Helmut Schaffrath.
**kern
*ICvox
*Ivox
!! Mixed meters:  2/4; 3/4; 4/4
*M3/4
*k[b-e-]
*B-:
{4dd
=1
[2gg
=2
2gg]
16gg
16ff
8dd
=3
4dd
4ff
8gg
8r
=4
4bb-
4ccc
16ccc
16bb-
8gg
=5
4bb-
4ddd
8bb-
8ccc
=6
*M2/4
8bb-
8gg
4gg}
=7
{4dd
=8
*M3/4
4dd
4gg
8gg
8ff
=9
4gg
4ccc
4ddd
=10
8ggg
8fff
[2ggg
=11
2.ggg]}
=12
{4gg
4ccc
4ddd
=13
8ccc
8bb-
4gg
8ff
8dd
=14
4gg
[2gg
=15
2.gg]}
=16
{4dd
4ff
8gg
8r
=17
4bb-
4ccc
16bb-
16gg
8r
=18
4bb-
4ddd
8bb-
8ccc
=19
8bb-
8gg
4gg
4r}
=20
{4dd
4gg
8gg
8ff
=21
4gg
4ccc
4ddd
=22
8ggg
8fff
2ggg}
=23
{4gg
4ccc
4ddd
=24
8ccc
8bb-
4gg
8ff
8dd
=25
4gg
[2gg
=26
*M2/4
4gg]
4ff}
=27
*M3/4
{4dd
4gg
8gg
8ff
=28
4gg
4ccc
4ddd
=29
8ggg
8fff
2ggg}
=30
{4gg
4ccc
4ddd
=31
8ccc
8bb-
4gg
8ff
8dd
=32
*M2/4
2gg
=33
*M3/4
4bb-
4ccc
4ddd
=34
8ggg
8fff
4ggg}
==
!!!AGN: Shange, Saladaling
!!!ONB: ESAC (Essen Associative Code) Database: SENGANSU
!!!AMT: irregular
!!!AIN: vox
!!!EED: Helmut Schaffrath
!!!EEV: 1.0
*-
!!!ONB: Tied note syntax fixed by Craig Sapp, 2004/05/03/
